vector/icon/upgrade/upgrade.svg

<?xml version="1.0" encoding="UTF-8" standalone="no"?>
<!-- Created with Inkscape (http://www.inkscape.org/) -->

<svg
   width="126.68313"
   height="161.30322"
   viewBox="0 0 33.518243 42.678145"
   version="1.1"
   id="svg40514"
   sodipodi:docname="upgrade.svg"
   inkscape:version="1.2 (56b05e47e7, 2022-06-09, custom)"
   xmlns:inkscape="http://www.inkscape.org/namespaces/inkscape"
   xmlns:sodipodi="http://sodipodi.sourceforge.net/DTD/sodipodi-0.dtd"
   xmlns="http://www.w3.org/2000/svg"
   xmlns:svg="http://www.w3.org/2000/svg">
  <sodipodi:namedview
     id="namedview40516"
     pagecolor="#636363"
     bordercolor="#666666"
     borderopacity="1.0"
     inkscape:showpageshadow="2"
     inkscape:pageopacity="0"
     inkscape:pagecheckerboard="0"
     inkscape:deskcolor="#d1d1d1"
     inkscape:document-units="mm"
     showgrid="false"
     inkscape:zoom="0.84096521"
     inkscape:cx="232.47097"
     inkscape:cy="258.03683"
     inkscape:window-width="960"
     inkscape:window-height="995"
     inkscape:window-x="1920"
     inkscape:window-y="0"
     inkscape:window-maximized="0"
     inkscape:current-layer="layer1" />
  <defs
     id="defs40511">
    <filter
       inkscape:collect="always"
       style="color-interpolation-filters:sRGB"
       id="filter76742"
       x="-0.045222348"
       y="-0.034834908"
       width="1.0905188"
       height="1.0696698">
      <feGaussianBlur
         inkscape:collect="always"
         stdDeviation="0.54898392"
         id="feGaussianBlur76744" />
    </filter>
  </defs>
  <g
     inkscape:label="Layer 1"
     inkscape:groupmode="layer"
     id="layer1"
     transform="translate(-10.578485,-5.7271091)">
    <path
       id="path76740"
       style="opacity:0.995382;fill:#000000;fill-opacity:1;stroke:#000000;stroke-width:0.144593;stroke-linejoin:round;stroke-dasharray:none;stroke-opacity:0.479569;filter:url(#filter76742)"
       inkscape:transform-center-x="-0.43695294"
       inkscape:transform-center-y="-2.4069245"
       d="m 27.286593,7.1171072 c -0.06051,-5.05e-4 -0.120346,2.98e-4 -0.180408,0.00334 C 23.011473,7.3355313 18.457334,15.171094 16.44874,18.745788 14.563205,22.101491 10.452699,29.7998 12.549495,33.02773 c 1.246991,1.9197 4.622387,2.775143 8.074395,3.148608 v 7.101886 c 0,2.070749 1.666421,3.737172 3.737168,3.73717 h 5.913267 c 2.070746,0 3.738302,-1.666421 3.738302,-3.73717 V 36.102769 C 37.566339,35.688021 41.202581,34.764454 42.26407,32.680574 44.125157,29.026912 39.615976,21.165622 37.524496,17.638784 35.591825,14.379733 31.093231,7.1495582 27.286659,7.1170004 Z" />
    <path
       id="path38862"
       style="opacity:0.995382;fill:#87df06;fill-opacity:1;stroke:#000000;stroke-width:0.144593;stroke-linejoin:round;stroke-dasharray:none;stroke-opacity:0.479569"
       inkscape:transform-center-x="-0.43695294"
       inkscape:transform-center-y="-2.4069245"
       d="m 27.286593,7.1171072 c -0.06051,-5.05e-4 -0.120346,2.98e-4 -0.180408,0.00334 C 23.011473,7.3355313 18.457334,15.171094 16.44874,18.745788 14.563205,22.101491 10.452699,29.7998 12.549495,33.02773 c 1.246991,1.9197 4.622387,2.775143 8.074395,3.148608 v 7.101886 c 0,2.070749 1.666421,3.737172 3.737168,3.73717 h 5.913267 c 2.070746,0 3.738302,-1.666421 3.738302,-3.73717 V 36.102769 C 37.566339,35.688021 41.202581,34.764454 42.26407,32.680574 44.125157,29.026912 39.615976,21.165622 37.524496,17.638784 35.591825,14.379733 31.093231,7.1495582 27.286659,7.1170004 Z" />
    <path
       id="path41791"
       style="opacity:0.995382;fill:#ffffff;fill-opacity:0.248257;stroke:none;stroke-width:0.144593;stroke-linejoin:round;stroke-dasharray:none;stroke-opacity:0.479569"
       inkscape:transform-center-x="-0.43695294"
       inkscape:transform-center-y="-2.4069245"
       d="m 27.286707,7.1168783 c -0.06051,-5.05e-4 -0.120289,5.753e-4 -0.180351,0.00362 -4.094708,0.2150839 -8.649156,8.0504397 -10.657748,11.6251307 -1.885533,3.355699 -5.99578,11.054405 -3.898986,14.282332 1.246989,1.919698 4.622438,2.774664 8.074442,3.148128 v 7.101893 c 0,2.070746 1.666495,3.737241 3.73724,3.737239 h 5.912817 c 0.337481,0 0.664028,-0.0451 0.974618,-0.128157 h -4.402832 c -2.070745,2e-6 -3.73724,-1.666493 -3.73724,-3.73724 V 36.047929 C 19.656662,35.674464 16.281214,34.818982 15.034224,32.899284 12.937431,29.671357 17.047678,21.973168 18.933211,18.617468 20.73498,15.410861 24.585181,8.7766497 28.314551,7.2889608 27.968037,7.1804607 27.624594,7.1197682 27.286707,7.1168783 Z" />
    <path
       id="path42159"
       style="opacity:0.995382;fill:#000000;fill-opacity:0.0834569;stroke:none;stroke-width:0.144593;stroke-linejoin:round;stroke-dasharray:none;stroke-opacity:0.479569"
       inkscape:transform-center-x="-0.43695294"
       inkscape:transform-center-y="-2.4069245"
       d="m 27.612785,7.1375488 c 3.299052,1.749248 6.708193,7.2472082 8.32404,9.9720012 2.091477,3.526834 6.600847,11.388318 4.739762,15.041976 -1.061488,2.083878 -4.697984,3.007266 -8.251693,3.422013 v 7.175273 c 0,2.070747 -1.667529,3.737239 -3.738273,3.737239 h -5.912817 c -0.123088,10e-7 -0.24487,-0.0061 -0.364836,-0.01757 0.567485,0.346881 1.235674,0.546738 1.952336,0.546737 h 5.912817 c 2.070744,0 3.738273,-1.666493 3.738273,-3.737239 V 36.102706 C 37.566103,35.687958 41.202599,34.76457 42.264087,32.680693 44.125172,29.027034 39.615802,21.165551 37.524325,17.638717 35.646584,14.472295 31.346827,7.5579178 27.612785,7.1375488 Z M 15.178402,34.960657 c 1.120173,0.461407 2.455537,0.781405 3.858162,1.004073 v -0.31781 c -1.337961,-0.144751 -2.662687,-0.362798 -3.858162,-0.686263 z" />
    <path
       id="path42273"
       style="opacity:0.995382;fill:#ffffff;fill-opacity:0.216776;stroke:none;stroke-width:0.0649999;stroke-linejoin:round;stroke-opacity:0.479569"
       d="m 19.649112,20.226881 c -0.05149,-0.03179 -0.103176,-0.06184 -0.156121,-0.09036 -3.613481,-1.937954 -11.569026,2.40314 -15.1393115,4.419551 -3.3515563,1.892888 -10.8563839,6.347299 -10.7358186,10.194573 0.053388,1.703765 1.422396,3.514033 3.2569666,5.198151 a 50.163738,18.561802 -180 0 0 16.8676575,1.088631 50.163738,18.561802 -180 0 0 8.914051,-0.29612 c 0.239221,-2.35309 0.281029,-4.643869 0.295883,-6.210368 0.03593,-3.78884 -0.06459,-12.303627 -3.303307,-14.304058 z"
       transform="rotate(-31.211974)" />
  </g>
</svg>

<?xml version="1.0" encoding="UTF-8" standalone="no"?>
<!-- Created with Inkscape (http://www.inkscape.org/) -->

<svg
   width="200"
   height="200"
   viewBox="0 0 52.916665 52.916667"
   version="1.1"
   id="svg40514"
   inkscape:version="1.2 (56b05e47e7, 2022-06-09, custom)"
   sodipodi:docname="upgrade.svg"
   xmlns:inkscape="http://www.inkscape.org/namespaces/inkscape"
   xmlns:sodipodi="http://sodipodi.sourceforge.net/DTD/sodipodi-0.dtd"
   xmlns="http://www.w3.org/2000/svg"
   xmlns:svg="http://www.w3.org/2000/svg">
  <sodipodi:namedview
     id="namedview40516"
     pagecolor="#636363"
     bordercolor="#666666"
     borderopacity="1.0"
     inkscape:showpageshadow="2"
     inkscape:pageopacity="0"
     inkscape:pagecheckerboard="0"
     inkscape:deskcolor="#d1d1d1"
     inkscape:document-units="mm"
     showgrid="false"
     inkscape:zoom="0.84096521"
     inkscape:cx="425.10677"
     inkscape:cy="275.87348"
     inkscape:window-width="1920"
     inkscape:window-height="995"
     inkscape:window-x="1920"
     inkscape:window-y="0"
     inkscape:window-maximized="1"
     inkscape:current-layer="layer1" />
  <defs
     id="defs40511" />
  <g
     inkscape:label="Layer 1"
     inkscape:groupmode="layer"
     id="layer1">
    <path
       id="path38862"
       style="opacity:0.995382;fill:#87df06;fill-opacity:1;stroke:#000000;stroke-width:0.144593;stroke-linejoin:round;stroke-dasharray:none;stroke-opacity:0.479569"
       inkscape:transform-center-x="-0.43695294"
       inkscape:transform-center-y="-2.4069245"
       d="m 27.286593,7.1171072 c -0.06051,-5.05e-4 -0.120346,2.98e-4 -0.180408,0.00334 C 23.011473,7.3355313 18.457334,15.171094 16.44874,18.745788 14.563205,22.101491 10.452699,29.7998 12.549495,33.02773 c 1.246991,1.9197 4.622387,2.775143 8.074395,3.148608 v 7.101886 c 0,2.070749 1.666421,3.737172 3.737168,3.73717 h 5.913267 c 2.070746,0 3.738302,-1.666421 3.738302,-3.73717 V 36.102769 C 37.566339,35.688021 41.202581,34.764454 42.26407,32.680574 44.125157,29.026912 39.615976,21.165622 37.524496,17.638784 35.591825,14.379733 31.093231,7.1495582 27.286659,7.1170004 Z" />
    <path
       id="path41791"
       style="opacity:0.995382;fill:#ffffff;fill-opacity:0.24825741;stroke:none;stroke-width:0.144593;stroke-linejoin:round;stroke-dasharray:none;stroke-opacity:0.479569"
       inkscape:transform-center-x="-0.43695294"
       inkscape:transform-center-y="-2.4069245"
       d="M 27.286707 7.1168783 C 27.226197 7.1163733 27.166418 7.1174536 27.106356 7.1204956 C 23.011648 7.3355795 18.4572 15.170935 16.448608 18.745626 C 14.563075 22.101325 10.452828 29.800031 12.549622 33.027958 C 13.796611 34.947656 17.17206 35.802622 20.624064 36.176086 L 20.624064 43.277979 C 20.624064 45.348725 22.290559 47.01522 24.361304 47.015218 L 30.274121 47.015218 C 30.611602 47.015218 30.938149 46.970121 31.248739 46.887061 L 26.845907 46.887061 C 24.775162 46.887063 23.108667 45.220568 23.108667 43.149821 L 23.108667 36.047929 C 19.656662 35.674464 16.281214 34.818982 15.034224 32.899284 C 12.937431 29.671357 17.047678 21.973168 18.933211 18.617468 C 20.73498 15.410861 24.585181 8.7766497 28.314551 7.2889608 C 27.968037 7.1804607 27.624594 7.1197682 27.286707 7.1168783 z " />
    <path
       id="path42159"
       style="opacity:0.995382;fill:#000000;fill-opacity:0.0834569;stroke:none;stroke-width:0.144593;stroke-linejoin:round;stroke-dasharray:none;stroke-opacity:0.479569"
       inkscape:transform-center-x="-0.43695294"
       inkscape:transform-center-y="-2.4069245"
       d="M 27.612785 7.1375488 C 30.911837 8.8867968 34.320978 14.384757 35.936825 17.10955 C 38.028302 20.636384 42.537672 28.497868 40.676587 32.151526 C 39.615099 34.235404 35.978603 35.158792 32.424894 35.573539 L 32.424894 42.748812 C 32.424894 44.819559 30.757365 46.486051 28.686621 46.486051 L 22.773804 46.486051 C 22.650716 46.486052 22.528934 46.479992 22.408968 46.468481 C 22.976453 46.815362 23.644642 47.015219 24.361304 47.015218 L 30.274121 47.015218 C 32.344865 47.015218 34.012394 45.348725 34.012394 43.277979 L 34.012394 36.102706 C 37.566103 35.687958 41.202599 34.76457 42.264087 32.680693 C 44.125172 29.027034 39.615802 21.165551 37.524325 17.638717 C 35.646584 14.472295 31.346827 7.5579178 27.612785 7.1375488 z M 15.178402 34.960657 C 16.298575 35.422064 17.633939 35.742062 19.036564 35.96473 L 19.036564 35.64692 C 17.698603 35.502169 16.373877 35.284122 15.178402 34.960657 z " />
    <path
       id="path42273"
       style="opacity:0.995382;fill:#ffffff;fill-opacity:0.216776;stroke:none;stroke-width:0.0649999;stroke-linejoin:round;stroke-opacity:0.479569"
       d="M 19.649112 20.226881 C 19.597622 20.195093 19.545936 20.165039 19.492991 20.136516 C 15.87951 18.198567 7.923965 22.539661 4.3536795 24.556072 C 1.0021232 26.44896 -6.5027044 30.903371 -6.3821391 34.750645 C -6.3287506 36.45441 -4.9597431 38.264678 -3.1251725 39.948796 A 50.163738 18.561802 -180 0 0 13.742485 41.037427 A 50.163738 18.561802 -180 0 0 22.656536 40.741307 C 22.895757 38.388217 22.937565 36.097438 22.952419 34.530939 C 22.988349 30.742099 22.88783 22.227312 19.649112 20.226881 z "
       transform="rotate(-31.211974)" />
  </g>
</svg>
